!!!OTL: DEN LIEBSTEN BRUDER
!!!ARE: Europa, Mitteleuropa, Deutschland, Saar - und Mosel - Gebiet
!!!SCT: K3050
!!!YEM: Copyright 1995, estate of Helmut Schaffrath.
**kern
*ICvox
*Ivox
*M3/4
*k[f#]
*G:
{8d
=1
8.g
16g
4.g
8a
=2
8.b
16b
4.b}
{8b
=3
8a
8b
4cc
4a
=4
4cc
4b
8r}
{8dd
=5
8dd
8b
4.ee
8dd
=6
8.dd
16cc
4.cc}
{8cc
=7
8cc
8a
4.dd
8cc
=8
4cc
4b
8r}
{8dd
=9
8dd
8b
4.ee
8dd
=10
8.dd
16cc
4.cc}
{8cc
=11
8cc
8a
4.dd
8cc
=12
4cc
4b
8r}
==
!!!AGN: Kinder - Lied; Trink - Lied
!!!ONB: ESAC (Essen Associative Code) Database: KINDER
!!!AMT: simple triple
!!!AIN: vox
!!!EED: Helmut Schaffrath
!!!EEV: 1.0
*-
